X: 1
T: Luka's Wake
M: 6/8
L: 1/8
R: jig
K: Bmin
BFD GEC | FDB, ECA, | B,DF DFB | dcB _B=Bc |
BFD GEC | B,D/2D/2G FDB, | DGE FBd |[1 c(3ccc B2_B :|[2 c(3ccc Bde ||:
fdB FB_A | _A=AB def | ecA a(3aaa | ged cde |
fdB FB_A | _A=AB def | edc dcB |[1 _B=Bc Bde :|[2 _B=Bc B3 ||
